assets/images/vector/icons/align_right.svg

<svg width="52" height="52" viewBox="0 0 52 52" fill="none" xmlns="http://www.w3.org/2000/svg">
<path d="M46.666 15V10C46.666 7.23858 44.4274 5 41.666 5L9.99935 5C7.23793 5 4.99935 7.23858 4.99935 10V15C4.99935 17.7614 7.23793 20 9.99935 20H41.666C44.4274 20 46.666 17.7614 46.666 15Z" stroke="#111111" stroke-width="10" stroke-linecap="round" stroke-linejoin="round"/>
<path d="M46.666 41.6667V36.6667C46.666 33.9053 44.4274 31.6667 41.666 31.6667H29.9993C27.2379 31.6667 24.9993 33.9053 24.9993 36.6667V41.6667C24.9993 44.4282 27.2379 46.6667 29.9993 46.6667H41.666C44.4274 46.6667 46.666 44.4282 46.666 41.6667Z" stroke="#111111" stroke-width="10" stroke-linecap="round" stroke-linejoin="round"/>
</svg>

<svg fill="none" height="52" viewBox="0 0 52 52" width="52" xmlns="http://www.w3.org/2000/svg"><g stroke="#111" stroke-linecap="round" stroke-linejoin="round" stroke-width="10"><path d="m46.666 15v-5c0-2.76142-2.2386-5-5-5h-31.66665c-2.76142 0-5 2.23858-5 5v5c0 2.7614 2.23858 5 5 5h31.66665c2.7614 0 5-2.2386 5-5z"/><path d="m46.666 41.6667v-5c0-2.7614-2.2386-5-5-5h-11.6667c-2.7614 0-5 2.2386-5 5v5c0 2.7615 2.2386 5 5 5h11.6667c2.7614 0 5-2.2385 5-5z"/></g></svg>
